!!!COM: Scarlatti, Domenico
!!!CDT: 1685-1757
!!!OTL: Sonata in C major, L.267, K.52
!!!SCT: K. 52
!!!SCT: L. 267
!!!OMD: Andante moderato ([quarter]=80)
**kern	**kern	**dynam
*staff2	*staff1	*staff1/2
*Icemba	*Icemba	*
*I"L.267 (K.52)	*I"L.267 (K.52)	*
*>[A,A1,A,A2,B,B1,B,B2]	*>[A,A1,A,A2,B,B1,B,B2]	*>[A,A1,A,A2,B,B1,B,B2]
*>norep[A,A2,B,B2]	*>norep[A,A2,B,B2]	*>norep[A,A2,B,B2]
*>A	*>A	*>A
*clefF4	*clefG2	*
*k[b-]	*k[b-]	*
*met(c)	*met(c)	*
*M4/4	*M4/4	*
*MM80	*MM80	*
=1-	=1-	=1-
(<8DL	4.d 4.f 4.dd	mf
8B-	.	.
8A	.	.
8GJ	8g 8cc# (8ee	.
8FL	4.a 4.dd 4.ff)	.
8E	.	.
8D	.	.
8C#J	8b- (8gg	.
=2	=2	=2
*	*^	*
8DL	2ryy	8a' 8dd' 8ff')	.
8E	.	4g (4ee	.
8F	.	.	.
8GJ	.	8f 8dd	.
8AL	8cc#L	4.a	.
8Bn	8ddJ	.	.
8c#	[4ee)	.	.
8AJ	.	8g	.
=3	=3	=3	=3
8dL	8ee]	4f	.
8F	(4dd	.	.
8G	.	8e\L	.
8AJ	8ee/	8c#</J	.
8DL)	2ryy	4.a 4.dd 4.ff)	<
(8d	.	.	.
8cn	.	.	.
8B-J	.	8b- 8ee (8gg	[[
!!LO:LB:g=z
=4	=4	=4	=4
8A 8cL	4.ryy	4.cc 4.ff 4.aa)	.
8G 8B-	.	.	.
8F 8A	.	.	.
8G 8B-J	16eeLL	8b- (>8gg	.
.	16ddJJ	.	.
4A 4c	4.ryy	8cc 8ff)	.
.	.	4g 4ee	.
[4B- 4d)	.	.	.
.	16b-LL	8f (>8dd	.
.	16aJJ	.	.
=5	=5	=5	=5
*^	*	*	*
4c	8B-L]	4cc)	8e 8gL	.
.	(8A	.	(8f	.
4r	8G	4rff	8g	.
.	8FJ	.	8aJ	.
2ryy	4E) 4G 4B- 4c	8b-	4g)	.
.	.	(4gg	.	.
.	4F 4A 4c	.	(4a	.
.	.	8ff	.	.
=6	=6	=6	=6	=6
(8GL	4C	8eeL	8gL	.
8c	.	8ff	8a	.
8B-	4r	8gg	8b-	.
8AJ	.	8aaJ	8ccJ	.
4G 4B-)	2ryy	4.bb-	8ddL	.
.	.	.	8eeJ	.
4F 4c 4f	.	.	[4ff	.
.	.	8aa	.	.
*v	*v	*	*	*
=7	=7	=7	=7
(8CL	8gg)	8ffL]	.
8c	4ccc	8ee	f
8d	.	8ff	.
8eJ	[8bb-	8ggJ	.
8fL	8bb-]L	8cc)	.
8A	8aaJ	(4ff	.
8B-	4gg	.	.
8cJ	.	[8ee)	.
!!LO:LB:g=z
=8	=8	=8	=8
*^	*	*	*
8ff>L\	8dL)	(8ee]L	8r	.
(8f/	8D	8ddJ	4b-	.
8g/	8E	4cc	.	.
[8f/J	8FJ	.	4a	.
8fL]	8GL	4b-	.	.
16eL	8GG	.	4g	.
16dJJ	.	.	.	.
4c)	8AA	4a	.	.
.	8BB-J	.	[8f	.
=9	=9	=9	=9	=9
2ryy	8CL	8g	8fL])	.
.	8CC	(4cc	8e	mf
.	8DD	.	8f	.
.	8EEJ	4b-	8gJ	.
8FF	4FF	.	8c	.
(4F	.	8a	4f	.
.	(4C	4g	.	.
[8c	.	.	[8e	.
=10	=10	=10	=10	=10
8c]	4D	4f	8e]	.
4B-	.	.	4d	.
.	4E	[4g	.	.
16ALL	.	.	8c	.
16GJJ	.	.	.	.
4A	4F	8g]	2r	>
.	.	4f	.	.
[4B-)	[4G)	.	.	.
.	.	16eLL	.	.
.	.	16dJJ	.	.
!!LO:LB:g=z
=11	=11	=11	=11	=11
8B-L]	8GL]	8eL)	4rA	p
8c	(8A	(8f	.	.
8B-	8G	8g	(8eL	.
8AJ	8FJ	8aJ	8fJ	.
2ryy	4E) 4G 4B- 4c	8b-')	4g)	.
.	.	(4gg	.	.
.	(4F 4A [4c	.	(4a	mf
.	.	[8ff	.	.
=12	=12	=12	=12	=12
4C\)	8cL>]	8ffL]	4.g)	.
.	(8c	16eeL	.	.
.	.	16ddJJ	.	.
4rGG	8B-	8eeL	.	.
.	8AJ)	8ffJ	(8a	.
4G 4B- 4c	2ryy	4.b-	8b-L	.
.	.	.	8eJ	.
4F 4c	.	.	[4f)	.
.	.	8a	.	.
=13	=13	=13	=13	=13
2c	(8cL	8g)	8fL]	.
.	8C	(4cc	(8e	.
.	8D	.	8f	.
.	8EJ	8b-	8gJ)	.
4c	4F)	8b-L	2rc	.
.	.	16a-L	.	.
.	.	16gJJ	.	.
([4f	4r	8a-L	.	<
.	.	8ccJ	.	.
!!LO:LB:g=z
=14	=14	=14	=14	=14
8fL]	2F	4.ff	8rg	.
8e-	.	.	4.f	.
8d	.	.	.	.
8cJ	.	8ee-	.	.
8GL	2G	8ddL	8re	.
8e-	.	8cc	8gL	.
8d	.	8bn	8f	.
8cJ	.	8ccJ	8a-J	.
=15	=15	=15	=15	=15
4d)	8BnL	8gL	8g)	.
.	(>8G	(8dd	8re	p
2.ryy	8c	8ee-	(8e-L	.
.	8dJ	8bnJ	8fJ	.
.	8enL	8b-L)	4g)	.
.	8c	(8gg	.	<
.	8f	8aa-	(8a-L	.
.	8gJ	8eenJ	8b-J	.
*v	*v	*	*	*
=16	=16	=16	=16
8a-L)	8ffL)	8ccL)	.
(8A-	8dd	(8f	.
8G	8ee-	8e-	.
8FJ	8bnJ	8dJ	.
8EnL)	8ccL	8c/) 8g/L	.
(8c	8gg	8en<\	.
8f	8aa-	8a-/	.
8gJ	8eenJ	8b-/J	.
!!LO:LB:g=z
=17	=17	=17	=17
8a-L)	8ffL	8ccL	.
(8A-	(8dd	8f	.
8G	8ee-	8e-	.
8FJ	8bnJ	8dJ	.
8En)	8ccL)	8c 8g	.
(8f	(8aan	(8an	.
4g	8bb-	4b-	.
.	8eenJ	.	.
=18	=18	=18	=18
*^	*	*	*
8anL)	2ryy	8ff)	8a	.
(<8AJ	.	(4ccc	8ccL	f
4B-	.	.	8dd	.
.	.	4bb-	16ggL	.
.	.	.	16ffJJ	.
*v	*v	*	*	*
*clefG2	*	*	*
*^	*	*	*
2c)	8cL	.	8ee	.
.	(8a	16aaLL	8r	.
.	.	16ffJJ	.	.
.	8b-	4gg	8r	.
.	[8ccJ	.	[8ee	.
=19	=19	=19	=19	=19
8cc]	4d	4ff	8ee]	.
4b-	.	.	4dd	.
.	4e	4.gg	.	.
16aLL	.	.	16ccLL	.
16gJJ	.	.	16b-JJ	.
*v	*v	*	*	*
*clefF4	*	*	*
*^	*	*	*
4.f	8fL	.	4.a	.
.	8FJ	16ffLL	.	.
.	.	16eeJJ	.	.
.	4B-	4dd	.	.
16eLL	.	.	16gLL	.
16dJJ	.	.	16fJJ	.
!!LO:LB:g=z
=20	=20	=20	=20	=20
8e)	8B-L	8cc)	8g	.
8r	(8A	(8fL	8rA	p
4r	8G	8g	4r	.
.	8FJ	8aJ	.	.
2ryy	4E) 4G 4B- 4c	8b-)	4g	.
.	.	(4gg	.	.
.	4F 4A 4c	.	4a	mf
.	.	8ff	.	.
=21	=21	=21	=21	=21
(4c	(8CL	8ee	8gL	.
.	8DJ	4dd	8fJ	.
4B-)	4E)	.	4.g	.
.	.	16ccLL	.	.
.	.	16b-JJ	.	.
2ryy	4F 4c	4a	.	>
.	.	.	4f	.
.	4C 4G 4c	4g	.	.
.	.	.	8e	.
*v	*v	*	*	*
=22	=22	=22	=22
(8FFL	4.f	8f	p
8C	.	(4c	.
8D	.	.	.
8EJ	8g	[8B-)	.
8FL)	8c)	8B-L]	.
(8FF	4f	(8A	.
8C	.	8GJ)	.
8CCJ	[8G [8B- [8c [8e	8ryy	.
!!LO:LB:g=z
=23	=23	=23	=23
4FF)	8G] 8B-] 8c] 8e]	2ryy	.
.	4A 4c 4f	.	<
4FF	.	.	.
.	8B- 8e 8g	.	.
4FF	[8a	4c	.
.	4f 4a]	.	.
4FF	.	4c	.
.	8e 8g (8b-	.	.
*	*v	*v	*
=24	=24	=24
*>A1	*>A1	*>A1
*	*^	*
4FF	8g [8a	4c	.
.	4f 4a])	.	.
4FF	.	4c	.
.	8e 8g (8b-	.	.
4FF	4cMM< 4f 4a)	2ryy	.
4r	4r	.	.
*	*v	*v	*
=25:|!	=25:|!	=25:|!
*>A2	*>A2	*>A2
*	*^	*
4FF	8g 8a	4c	.
.	4f 4a	.	.
4FF	.	4c	.
.	8e 8g (8b-	.	.
8FF	8c 8f 8a	2ryy	p
(4F	(8A 8cL)	.	.
.	8Bn 8d	.	.
8E	8c 8eJ	.	.
*	*v	*v	*
=26!|:	=26!|:	=26!|:
*>B	*>B	*>B
8D)	8d) 8fL	.
(<4G	(8Bn 8d	.
.	8c# 8e	.
8F	8d 8fJ	.
4E 4G	8e) 8g	.
.	(4d 4f	.
4AA 4A	.	.
.	8c#) 8e	.
!!LO:LB:g=z
=27	=27	=27
*^	*^	*
4D)	8DL	8f#L	4dd	<
.	8B- (8d	8gJ	.	.
4r	8A 8c	8aL	8f#L	.
.	8G [8dJ	16b-L	8gJ	.
.	.	16ccJJ	.	.
4.d]	8F#L	4.dd	8aL	.
.	8G	.	8b-	.
.	8Fn	.	8a	mf
16B-LL	8E-J	(8gg	8gJ	.
16cJJ	.	.	.	.
=28	=28	=28	=28	=28
8dL	4D)	8ff#L	8aL	.
8c	.	8ee-	16gL	.
.	.	.	16f#J	.
8B-	(4D	8dd	8g	.
8AJ	.	[8ccJ	8aJ	.
2r	8G)	8ccL]	8d	.
.	(4B-	16b-L	4g	.
.	.	16ccJJ	.	.
.	.	4dd	.	.
.	8Bn)	.	8fn	.
=29	=29	=29	=29	=29
(4C	8CL	4cc)	(8eL	.
.	8A 8c	.	8fJ	p
4ryy	8G 8B-	8gL	8eL	<
.	8F [8cJ	16aL	8fJ	.
.	.	16b-JJ	.	.
4.c]	8EL	4.cc	8gL	.
.	8F	.	8a	[
.	8E	.	8g	mf
16ALL	8DJ	8ff	8fJ	.
16BnJJ	.	.	.	.
!!LO:LB:g=z
=30	=30	=30	=30	=30
8cL	4C)	8eeL	8gL	.
8B-	.	8dd	16fL	.
.	.	.	16eJ	.
(8A	(4C	8ccJ	8f	.
8GJ	.	4b-	8gJ	.
2ryy	4F))	.	8c)	.
.	.	4a	4f	.
.	(<[4c	.	.	.
.	.	16gLL	16eLL	.
.	.	16fJJ	16dJJ	.
=31	=31	=31	=31	=31
8e>\L	8cL]	8g	2.ryy	.
16d/L	16B-L	(>4cc/	.	.
16c/JJ	16AJJ	.	.	.
8dL	4G	.	.	.
[8dJ	.	[8b-/	.	.
4d]	4.D)	8b-L]	.	.
.	.	16aL	.	.
.	.	16gJ	.	.
4ryy	.	8a	8fL	.
.	(<16cLL	[8dd^J)	16eL	.
.	16B-JJ	.	16dJJ	.
=32	=32	=32	=32	=32
4ryy	4A	8dd]	8e	.
.	.	4cc	(4a	.
(4.e	4.E)	.	.	.
.	.	16bnLL	16g#LL	.
.	.	16aJJ	16f#JJ	.
.	.	8bL	8g#L	.
16dLL	4r	8cc	8a	.
16cJ	.	.	.	.
8d)	.	8dd	8g#	.
([8eJ	(16BnLL	16ccL	8aJ	.
.	16AJJ	16ddJJ	.	.
!!LO:LB:g=z
=33	=33	=33	=33	=33
4.e]	8G#L	4.ee	8bnL	.
.	8A	.	8cc	.
.	8Gn	.	8b)	.
16cLL	8FJ	(8aa	8aJ	f
16dJJ	.	.	.	.
8eL	4E)	8gg#L	8bL	.
8d	.	8ffn	16aL	.
.	.	.	16gJ	.
8c	4E	8ee	8a	.
8BnJ	.	[8ddJ	8bJ	.
=34	=34	=34	=34	=34
4.A	8A)	8ddL]	8e	.
.	(4AA	16cc#L	4a	.
.	.	16bnJ	.	.
.	.	8cc#	.	.
16GLL	8BBn	8ddJ	8d	.
16FJJ	.	.	.	.
8EL	8C#L	8ee)	(8gnL	.
8F	8D	4dd	8f	.
8G	8E)	.	8e	.
([8AJ	8AAJ	8cc#	8aJ	.
=35	=35	=35	=35	=35
8AL]	4.BB-	4.dd	8dL)	.
16GL	.	.	(8dJ	.
16F#JJ	.	.	.	.
4.G)	.	.	4.g	mf
.	(8C	8ee-	.	.
.	8D)	8b-L	.	.
4.ryy	(4d	16aL	16fnLL	.
.	.	16gJ	16enJJ	.
.	.	8a	[4f)	.
.	8c	8ddJ	.	.
!!LO:LB:g=z
=36	=36	=36	=36	=36
4.ryy	8Bn)	8dd@	8f]	.
.	(<4c	(4g	16e-LL	.
.	.	.	16dJ	.
.	.	.	8e-	.
(8d	8A-	4cc)	8fJ	.
8e-L	4G)	.	8gL	.
16dL	.	(4gg	16bnL	.
16cJJ	.	.	16aJ	.
4d)	4G	.	8b	.
.	.	[8ff	8ddJ	.
=37	=37	=37	=37	=37
4c	(8c	8ffL]	8g	.
.	4C	16eenL	4cc	.
.	.	16ddJ	.	.
2c	.	8ee	.	.
.	8D	8ffJ	16b-LL	.
.	.	.	16aJJ	.
.	8EL	8gg	8gL	.
.	8FJ	(4ff)	8aJ	.
(4B-	4G	.	[4b-	.
.	.	8ee	.	.
=38	=38	=38	=38	=38
8c)	4F)	8ff)	8b-L]	.
(4f	.	4cc	16aL	.
.	.	.	16gJ	.
.	4F	.	8a	.
16e-LL	.	8dd	8ddJ	.
16dJJ	.	.	.	.
8cL	4F	8ee-L	4.a	.
8d	.	8ddJ	.	.
8e-	(4F	[4cc	.	.
8fJ	.	.	[8a	.
!!LO:LB:g=z
=39	=39	=39	=39	=39
8d)	4G)	8cc]	8a]	<
(4g	.	(4dd	(16b-LL	.
.	.	.	16aJJ	.
.	2G	.	4b-	.
8en	.	[8gg	.	.
8c#L	.	8ggL]	8a))	.
16dL	.	16ffL	(4dd	.
16eJ	.	16ggJ	.	.
8f	(8FL	8aa	.	.
8dJ	8GJ	8bb-J	[8dd	f
*v	*v	*	*	*
=40	=40	=40	=40
8A))	8ffL	8ddL]	.
(4a	(16ee-L	16ccL	.
.	16ddJJ	16b-JJ	.
.	8ee-L	4.cc	.
8g	8aaJ	.	.
8f#)	8.ddL	.	.
(4g	.	16b-LL	.
.	16cc#Jk	16aJJ	.
.	8ddL	[4b-	.
8fn	8ggJ	.	.
=41	=41	=41	=41
8e)	8.ccnL	8b-L]	.
(4f	.	16aL	.
.	16b-Jk	16gJJ	.
.	8ccL	4.a	>
8e	8ffJ	.	.
8d)	8.b-L	.	.
(4e	.	16gLL	.
.	16aJk	16f#JJ	.
.	8b-L	[4g	.
8d	8eeJ	.	.
!!LO:LB:g=z
=42	=42	=42	=42
8c#)	4.a)	8gL]	p
(<4d	.	16fnL	.
.	.	16eJ	.
.	.	8f	.
16cnLL	(8dd	8gJ	<
16B-JJ	.	.	.
8A) 8eL	8cc#L	8aL)	.
8F (8d	8dd	(8a	.
8E 8c#)	8ee	8g)	.
8D 8dJ	16ffL	8aJ	.
.	16ggJJ	.	.
=43	=43	=43	=43
*^	*	*	*
4A	(8C#L	8aaL	4.a	f
.	8D	8ff	.	.
4A	8Cn	8ee	.	.
.	8BB-J	[8ddJ)	(16fLL	.
.	.	.	16gJJ	.
8A	4AA)	8ddL]	8a)	.
(4A	.	(16cc#L	4e	.
.	.	16bnJ	.	.
.	4r	8cc#	.	.
16GLL	.	8ddJ	(8f	.
16FJJ	.	.	.	.
=44	=44	=44	=44	=44
8E	2r	8eeL	8gL	.
4D	.	8ffJ	8a	.
.	.	4.gg)	8b-X	.
8C#	.	.	[8aJ)	.
8D)	4D	.	4a]	.
(<4d	.	(16ff#LL	.	.
.	.	16eeJ	.	.
.	4r	8ff#	8aL	.
16cnLL	.	8ggJ	8b-J	.
16B-JJ	.	.	.	.
*v	*v	*	*	*
!!LO:LB:g=z
=45	=45	=45	=45
8A	8aaL	8ccL	.
4G	8bb-J	8dd	.
.	4.ccc)	8ee-	.
8F#	.	[8ddJ	.
8G) 8d	.	8dd]	.
(8gL	(4bb-	(8dd	.
8e	.	4cc	.
8fnJ	[8ff [8aa	.	.
=46	=46	=46	=46
8dL	8ff] 8aa]	4b-	.
8e	4een 4gg	.	.
8c	.	4a	.
8dJ	4dd 4ff	.	.
8B-L	.	4g	.
8c	4cc 4ee	.	.
8A	.	4f	.
16B-L	[8b- [8dd)	.	.
16AJJ	.	.	.
=47	=47	=47	=47
8GL	8b-] 8dd]	8e)	.
16AL	(8cc#L	(4a	.
16GJ	.	.	.
8F 8A	8dd	.	.
8E 8GJ	8eeJ	16bnLL	.
.	.	16cc#JJ	.
8D 8A)	8ffL	16ddLL	.
.	.	16ccn	.
4GG 4G	16ggL	16b-	.
.	16ffJ	16aJJ	.
.	8ee	8gL	.
(<8GG 8G	8ddJ	8fJ	.
!!LO:LB:g=z
=48	=48	=48	=48
8AA) 8A	8cc#)	8e)	.
(8c#L	(8eeL	(4a	p
8d	8ff	.	<
8eJ	8cc#J	8g 8b-	.
8f)	8dd)	8a)	.
(8f#L	(8aaL	(4dd	.
8g	8bb-	.	.
8aJ	8ff#J	8ccn 8ee-	.
=49	=49	=49	=49
8b-)	8gg)	8dd)	.
(8aL	(4ffn	(4dd	f
8gJ)	.	.	.
(4g	16eeLL	16cc#LL	.
.	16ddJJ	16bnJJ	.
.	8ee)	8cc#)	.
8fL	(8ddL	(8aL	>
8e	8ccn	8g	.
8dJ	8b-J	8fJ	.
=50	=50	=50	=50
8c#L	4.a	8eL	.
8d	.	8f	.
8cn	.	8e	.
8B-XJ)	8g	8dJ	.
4AA	8a)	8c#)	.
.	(8c# 8eL	4.ryy	p
4AA	8d 8f	.	.
.	8G 8B- 8c#J	.	.
*	*v	*v	*
!!LO:LB:g=z
=51	=51	=51
4AA	8F#) 8A 8d	.
.	(8f# 8aL	<
4AA	8g 8b-	.
.	8cn 8e- 8f#XJ	.
4AA	8Bn) 8d 8g	.
.	(8g# 8bnL	.
4AA	8a 8cc	.
.	8d 8fn 8g#XJ	.
=52	=52	=52
4AA	8c#) 8en 8a	.
.	8cc# (8eeL	f
4AA	8dd 8ff	.
.	8g 8b-X 8cc#J	.
4AA	8f 8a 8dd)	.
.	(8d 8f 8b-L	.
4AA	8c# 8e 8a	.
.	8Bn 8d 8g#J	.
=53	=53	=53
*^	*^	*
4r	(8AL	8c#) 8e 8a	8ryy	.
.	8AA	(4a	(8c#L	.
4A	8BBn	.	8d	.
.	8C#J	4gn	[8eJ	>
2ryy	8D) 8AL<	.	8e]	.
.	(8GG	16fLL	4d	.
.	.	16gJ	.	.
.	8AA)	8f	.	.
.	(<8AAJ	8eJ	[8c#)	p
*v	*v	*	*	*
!!LO:LB:g=z
=54	=54	=54	=54
4DD) 4D	8e)	8c#]	.
.	(4f#	(4d	.
4DD 4D	.	.	<
.	4g	16cnLL	.
.	.	16B-JJ	.
4DD 4D	.	4.d	.
.	16f#LL	.	.
.	16eJJ	.	.
4DD 4D	8f#L	.	.
.	8gJ	8e	.
=55	=55	=55	=55
4DD 4D	8f# 8a)	4d)	.
.	4g (4b-	.	.
4DD 4D	.	4d	.
.	4a 4cc	.	.
4DD 4D	.	4d	.
.	16g 16b-LL	.	.
.	16f# 16aJJ	.	.
*	*	*^	*
4DD 4D	8b-L	(8gL	4d/	.
.	8cc#J	16f#L	.	.
.	.	16eJJ	.	.
*	*v	*v	*v	*
=56	=56	=56
*>B1	*>B1	*>B1
*	*^	*
8DD 8D	8d 8a 8dd))	8ryy	f
(8D	(4dd	(<[16fn 16b-LL	.
.	.	16f] 16aJJ	.
4E	.	16gLL	.
.	.	16f	.
.	16ccnLL	16e	.
.	16b-JJ	16dJJ	.
8F)	8c 8f 8a))	2ryy	.
(4F	(<8A 8cL	.	p
.	8Bn 8d	.	.
8E)	8c 8eJ)	.	.
*	*v	*v	*
=57:|!	=57:|!	=57:|!
*>B2	*>B2	*>B2
1DD;< 1D;<	1d; 1f#; 1a; 1dd;	f)
==	==	==
*-	*-	*-
!!!RDF**kern: > = above
!!!RDF**kern: < = below
!!!RDF**kern: @ = marked note, color="silver", optional note
!!!PTL: Domenico Scarlatti: Opere complete per clavicembalo
!!!PED: Longo, Alessandro
!!!PPR: Ricordi
!!!PPP: Milan
!!!PDT: 1906-1913
!!!ENC: Craig Stuart Sapp
!!!END: 2006/08/11
!!!EED: Craig Stuart Sapp
!!!EEV: 2020/12/18
